flaticon/arrows/sort.svg

<svg xmlns="http://www.w3.org/2000/svg" width="32" height="32" viewBox="0 0 24 24">
    <path d="M13.917969 18.515625L9.800781 22.632812 9.800781 8.398438C9.800781 8.179688 9.621094 8 9.398438 8 9.179688 8 9 8.179688 9 8.398438L9 22.632812 4.882812 18.515625C4.726562 18.359375 4.472656 18.359375 4.316406 18.515625 4.160156 18.671875 4.160156 18.925781 4.316406 19.082031L9.117188 23.882812C9.152344 23.917969 9.199219 23.949219 9.246094 23.96875 9.296875 23.988281 9.347656 24 9.398438 24 9.453125 24 9.503906 23.988281 9.550781 23.96875 9.601562 23.949219 9.644531 23.917969 9.683594 23.882812L14.484375 19.082031C14.640625 18.925781 14.640625 18.671875 14.484375 18.515625 14.328125 18.359375 14.074219 18.359375 13.917969 18.515625zM19.683594 4.917969L14.882812.117188C14.847656.078125 14.800781.0507812 14.753906.03125 14.65625-.0117188 14.542969-.0117188 14.445312.03125 14.398438.0507812 14.355469.078125 14.316406.117188L9.515625 4.917969C9.359375 5.074219 9.359375 5.324219 9.515625 5.484375 9.59375 5.558594 9.699219 5.601562 9.800781 5.601562 9.902344 5.601562 10.003906 5.558594 10.082031 5.484375L14.199219 1.363281 14.199219 15.601562C14.199219 15.820312 14.378906 16 14.601562 16 14.820312 16 15 15.820312 15 15.601562L15 1.363281 19.117188 5.484375C19.195312 5.558594 19.296875 5.601562 19.398438 5.601562 19.503906 5.601562 19.605469 5.558594 19.683594 5.484375 19.839844 5.324219 19.839844 5.074219 19.683594 4.917969zM19.683594 4.917969"/>
</svg>

<svg xmlns="http://www.w3.org/2000/svg" width="32" height="32" viewBox="0 0 24 24">
    <path d="M13.918 18.516l-4.117 4.117V8.398a.401.401 0 0 0-.801 0v14.235l-4.117-4.117a.4.4 0 0 0-.567.566l4.801 4.8a.414.414 0 0 0 .281.118.432.432 0 0 0 .285-.117l4.801-4.801a.4.4 0 0 0-.566-.566zm0 0M19.684 4.918l-4.801-4.8a.356.356 0 0 0-.13-.087.385.385 0 0 0-.308 0 .392.392 0 0 0-.129.086l-4.8 4.801a.4.4 0 0 0 .566.566l4.117-4.12v14.238a.401.401 0 0 0 .801 0V1.363l4.117 4.121c.078.075.18.118.281.118a.4.4 0 0 0 .285-.684zm0 0"/>
</svg>
